public/icons/javascript.svg

<svg width="128" height="128" viewBox="0 0 128 128" fill="none" xmlns="http://www.w3.org/2000/svg">
<path d="M1.40796 1.40796H126.592V126.593H1.40796V1.40796Z" fill="#F0DB4F"/>
<path d="M116.347 96.736C115.43 91.025 111.706 86.228 100.675 81.755C96.8431 79.994 92.5711 78.733 91.2981 75.829C90.8461 74.139 90.7861 73.187 91.0721 72.164C91.8931 68.844 95.8561 67.809 98.9971 68.761C101.02 69.439 102.935 70.998 104.09 73.485C109.492 69.987 109.481 70.01 113.253 67.606C111.872 65.465 111.135 64.477 110.231 63.561C106.982 59.932 102.555 58.063 95.4751 58.206L91.7871 58.683C88.2531 59.576 84.8851 61.431 82.9101 63.918C76.9841 70.642 78.6741 82.41 85.8851 87.253C92.9891 92.585 103.425 93.798 104.758 98.784C106.055 104.888 100.272 106.864 94.5241 106.162C90.2881 105.281 87.9321 103.128 85.3851 99.213C80.6971 101.926 80.6971 101.926 75.8771 104.698C77.0201 107.197 78.2211 108.328 80.1371 110.493C89.2051 119.691 111.897 119.239 115.967 105.317C116.132 104.839 117.228 101.651 116.347 96.736V96.736ZM69.4621 58.943H57.7531L57.7051 89.215C57.7051 95.653 58.0381 101.555 56.9911 103.364C55.2781 106.922 50.8391 106.481 48.8161 105.791C46.7571 104.779 45.7101 103.34 44.4971 101.306C44.1641 100.722 43.9141 100.27 43.8301 100.235L34.3101 106.065C35.8931 109.314 38.2251 112.134 41.2121 113.966C45.6741 116.644 51.6711 117.465 57.9431 116.025C62.0251 114.836 65.5471 112.373 67.3911 108.624C70.0571 103.709 69.4851 97.76 69.4611 91.18C69.5211 80.445 69.4621 69.712 69.4621 58.943V58.943Z" fill="#323330"/>
</svg>

<svg xmlns="http://www.w3.org/2000/svg" fill="none" viewBox="0 0 128 128"><path fill="#F0DB4F" d="M1.408 1.408h125.184v125.185H1.408V1.408Z"/><path fill="#323330" d="M116.347 96.736c-.917-5.711-4.641-10.508-15.672-14.981-3.832-1.761-8.104-3.022-9.377-5.926-.452-1.69-.512-2.642-.226-3.665.821-3.32 4.784-4.355 7.925-3.403 2.023.678 3.938 2.237 5.093 4.724 5.402-3.498 5.391-3.475 9.163-5.879-1.381-2.141-2.118-3.129-3.022-4.045-3.249-3.629-7.676-5.498-14.756-5.355l-3.688.477c-3.534.893-6.902 2.748-8.877 5.235-5.926 6.724-4.236 18.492 2.975 23.335 7.104 5.332 17.54 6.545 18.873 11.531 1.297 6.104-4.486 8.08-10.234 7.378-4.236-.881-6.592-3.034-9.139-6.949-4.688 2.713-4.688 2.713-9.508 5.485 1.143 2.499 2.344 3.63 4.26 5.795 9.068 9.198 31.76 8.746 35.83-5.176.165-.478 1.261-3.666.38-8.581ZM69.462 58.943H57.753l-.048 30.272c0 6.438.333 12.34-.714 14.149-1.713 3.558-6.152 3.117-8.175 2.427-2.059-1.012-3.106-2.451-4.319-4.485-.333-.584-.583-1.036-.667-1.071l-9.52 5.83c1.583 3.249 3.915 6.069 6.902 7.901 4.462 2.678 10.46 3.499 16.731 2.059 4.082-1.189 7.604-3.652 9.448-7.401 2.666-4.915 2.094-10.864 2.07-17.444.06-10.735.001-21.468.001-32.237Z"/></svg>
